assets/img/braze_icons/phone-pause.svg

<svg fill="none" height="24" viewBox="0 0 24 24" width="24" xmlns="http://www.w3.org/2000/svg"><g clip-rule="evenodd" fill="#801ed7" fill-rule="evenodd"><path d="m20 2c.5523 0 1 .44772 1 1v7c0 .5523-.4477 1-1 1s-1-.4477-1-1v-7c0-.55228.4477-1 1-1z"/><path d="m15 2c.5523 0 1 .44772 1 1v7c0 .5523-.4477 1-1 1s-1-.4477-1-1v-7c0-.55228.4477-1 1-1z"/><path d="m6.33804 17.7522c-2.43391-2.434-4.20373-5.4649-5.14431-8.77415-.14751-.51901-.261898-.92148-.263541-1.47338-.001878-.63077.203631-1.42101.512561-1.97095.53128-.94577 1.67204-2.15783 2.65737-2.6562.85134-.43061 1.85674-.43061 2.70808 0 .83566.42267 1.79422 1.40108 2.30314 2.18382.64649.99434.64649 2.27621 0 3.27055-.17324.26645-.42017.51296-.70683.79913-.08926.08911-.18751.1535-.12226.28939.64782 1.34929 1.53131 2.61489 2.65195 3.73559 1.1207 1.1206 2.3863 2.0041 3.7356 2.652.1397.067.1969-.0297.2894-.1223.2862-.2867.5327-.5336.7991-.7068.9944-.6465 2.2762-.6465 3.2706 0 .7827.5089 1.7611 1.4674 2.1838 2.3031.4306.8513.4306 1.8567 0 2.7081-.4947.9779-1.6968 2.1184-2.6562 2.6574-.55.3089-1.3402.5144-1.971.5125-.5519-.0016-.9543-.116-1.4733-.2635-3.3093-.9405-6.34028-2.7105-8.77416-5.1443z"/></g></svg>

<svg width="24" height="24" viewBox="0 0 24 24" fill="none" xmlns="http://www.w3.org/2000/svg">
<path fill-rule="evenodd" clip-rule="evenodd" d="M20 2C20.5523 2 21 2.44772 21 3V10C21 10.5523 20.5523 11 20 11C19.4477 11 19 10.5523 19 10V3C19 2.44772 19.4477 2 20 2Z" fill="#801ED7"/>
<path fill-rule="evenodd" clip-rule="evenodd" d="M15 2C15.5523 2 16 2.44772 16 3V10C16 10.5523 15.5523 11 15 11C14.4477 11 14 10.5523 14 10V3C14 2.44772 14.4477 2 15 2Z" fill="#801ED7"/>
<path fill-rule="evenodd" clip-rule="evenodd" d="M6.33804 17.7522C3.90413 15.3182 2.13431 12.2873 1.19373 8.97805C1.04622 8.45904 0.931832 8.05657 0.930189 7.50467C0.928311 6.8739 1.13382 6.08366 1.44275 5.53372C1.97403 4.58795 3.11479 3.37589 4.10012 2.87752C4.95146 2.44691 5.95686 2.44691 6.8082 2.87752C7.64386 3.30019 8.60242 4.2786 9.11134 5.06134C9.75783 6.05568 9.75783 7.33755 9.11134 8.33189C8.9381 8.59834 8.69117 8.84485 8.40451 9.13102C8.31525 9.22013 8.217 9.28452 8.28225 9.42041C8.93007 10.7697 9.81356 12.0353 10.9342 13.156C12.0549 14.2766 13.3205 15.1601 14.6698 15.808C14.8095 15.875 14.8667 15.7783 14.9592 15.6857C15.2454 15.399 15.4919 15.1521 15.7583 14.9789C16.7527 14.3324 18.0345 14.3324 19.0289 14.9789C19.8116 15.4878 20.79 16.4463 21.2127 17.282C21.6433 18.1333 21.6433 19.1387 21.2127 19.9901C20.718 20.968 19.5159 22.1085 18.5565 22.6475C18.0065 22.9564 17.2163 23.1619 16.5855 23.16C16.0336 23.1584 15.6312 23.044 15.1122 22.8965C11.8029 21.956 8.77192 20.186 6.33804 17.7522Z" fill="#801ED7"/>
</svg>
